X: 1
T: There's Nae Luck Aboot the Hoose
O: trad Scotland, England
R: hornpipe
B: RSCDS 10-10(a)
Z: 1997 by John Chambers <jc:trillian.mit.edu>
N: Johnson's Museum 1788, adapted from earlier tune "Up and war a' Willie" published by Oswald 1750.
M: 4/4
L: 1/8
K: G
d \
| "G"gedB "C"cdef | "G"gedB "D7"A3d \
| "G"gedB "C"cdeg | "D7"dcBA "G"G3 :|
|: A \
| "G"B2BG "C"c2cA | "G"B2BG "D7"A2GA \
| "G"B2BG "C"cdeg | "D7"dcBA "G"G3 :|
%%center Book10/10101-Theres_Nae_Luck_Aboot_the_Hoose-6.abc

%%sep 1 1 500
%%sep 1 1 500

